icons/medium.svg

<svg width="24" height="24" viewBox="0 0 24 24" fill="none" xmlns="http://www.w3.org/2000/svg">
<path d="M12 4C9.526 4 9.122 4.007 7.971 4.058C7.187 4.095 6.661 4.2 6.173 4.39C5.739 4.558 5.426 4.759 5.093 5.093C4.78001 5.3954 4.53935 5.76458 4.389 6.173C4.199 6.663 4.094 7.188 4.058 7.971C4.006 9.075 4 9.461 4 12C4 14.474 4.007 14.878 4.058 16.029C4.095 16.812 4.2 17.339 4.389 17.826C4.559 18.261 4.759 18.574 5.091 18.906C5.428 19.242 5.741 19.443 6.171 19.609C6.665 19.8 7.191 19.906 7.971 19.942C9.075 19.994 9.461 20 12 20C14.474 20 14.878 19.993 16.029 19.942C16.811 19.905 17.338 19.8 17.826 19.611C18.259 19.442 18.574 19.241 18.906 18.909C19.243 18.572 19.444 18.259 19.61 17.829C19.8 17.336 19.906 16.809 19.942 16.029C19.994 14.925 20 14.539 20 12C20 9.526 19.993 9.122 19.942 7.971C19.905 7.189 19.8 6.661 19.61 6.173C19.4593 5.765 19.2191 5.39596 18.907 5.093C18.6047 4.77985 18.2355 4.53917 17.827 4.389C17.337 4.199 16.811 4.094 16.029 4.058C14.925 4.006 14.539 4 12 4ZM12 2C14.717 2 15.056 2.01 16.122 2.06C17.187 2.11 17.912 2.277 18.55 2.525C19.21 2.779 19.766 3.123 20.322 3.678C20.8305 4.1779 21.224 4.78259 21.475 5.45C21.722 6.087 21.89 6.813 21.94 7.878C21.987 8.944 22 9.283 22 12C22 14.717 21.99 15.056 21.94 16.122C21.89 17.187 21.722 17.912 21.475 18.55C21.2247 19.2178 20.8311 19.8226 20.322 20.322C19.822 20.8303 19.2173 21.2238 18.55 21.475C17.913 21.722 17.187 21.89 16.122 21.94C15.056 21.987 14.717 22 12 22C9.283 22 8.944 21.99 7.878 21.94C6.813 21.89 6.088 21.722 5.45 21.475C4.78233 21.2245 4.17753 20.8309 3.678 20.322C3.16941 19.8222 2.77593 19.2175 2.525 18.55C2.277 17.913 2.11 17.187 2.06 16.122C2.013 15.056 2 14.717 2 12C2 9.283 2.01 8.944 2.06 7.878C2.11 6.812 2.277 6.088 2.525 5.45C2.77524 4.78218 3.1688 4.17732 3.678 3.678C4.17767 3.16923 4.78243 2.77573 5.45 2.525C6.088 2.277 6.812 2.11 7.878 2.06C8.944 2.013 9.283 2 12 2Z" fill="black"/>
<path fill-rule="evenodd" clip-rule="evenodd" d="M7 7C6.73478 7 6.48043 7.10536 6.29289 7.29289C6.10536 7.48043 6 7.73478 6 8C6 8.26522 6.10536 8.51957 6.29289 8.70711C6.48043 8.89464 6.73478 9 7 9V15C6.73478 15 6.48043 15.1054 6.29289 15.2929C6.10536 15.4804 6 15.7348 6 16C6 16.2652 6.10536 16.5196 6.29289 16.7071C6.48043 16.8946 6.73478 17 7 17H9C9.26522 17 9.51957 16.8946 9.70711 16.7071C9.89464 16.5196 10 16.2652 10 16C10 15.7348 9.89464 15.4804 9.70711 15.2929C9.51957 15.1054 9.26522 15 9 15V11.303L11.168 14.555C11.2593 14.692 11.383 14.8043 11.5282 14.8819C11.6733 14.9596 11.8354 15.0002 12 15.0002C12.1646 15.0002 12.3267 14.9596 12.4718 14.8819C12.617 14.8043 12.7407 14.692 12.832 14.555L15 11.303V15C14.7348 15 14.4804 15.1054 14.2929 15.2929C14.1054 15.4804 14 15.7348 14 16C14 16.2652 14.1054 16.5196 14.2929 16.7071C14.4804 16.8946 14.7348 17 15 17H17C17.2652 17 17.5196 16.8946 17.7071 16.7071C17.8946 16.5196 18 16.2652 18 16C18 15.7348 17.8946 15.4804 17.7071 15.2929C17.5196 15.1054 17.2652 15 17 15V9C17.2652 9 17.5196 8.89464 17.7071 8.70711C17.8946 8.51957 18 8.26522 18 8C18 7.73478 17.8946 7.48043 17.7071 7.29289C17.5196 7.10536 17.2652 7 17 7H16C15.8354 6.99998 15.6734 7.04058 15.5282 7.11821C15.3831 7.19583 15.2593 7.30808 15.168 7.445L12 12.197L8.832 7.445C8.74065 7.30808 8.61692 7.19583 8.47178 7.11821C8.32665 7.04058 8.16459 6.99998 8 7H7Z" fill="black"/>
</svg>

<svg
  width="24"
  height="24"
  viewBox="0 0 24 24"
  xmlns="http://www.w3.org/2000/svg"
>
  <path d="M12 4c-2.474 0-2.878.007-4.029.058-.784.037-1.31.142-1.798.332a2.886 2.886 0 0 0-1.08.703 2.89 2.89 0 0 0-.704 1.08c-.19.49-.295 1.015-.331 1.798C4.006 9.075 4 9.461 4 12c0 2.474.007 2.878.058 4.029.037.783.142 1.31.331 1.797.17.435.37.748.702 1.08.337.336.65.537 1.08.703.494.191 1.02.297 1.8.333C9.075 19.994 9.461 20 12 20c2.474 0 2.878-.007 4.029-.058.782-.037 1.309-.142 1.797-.331a2.92 2.92 0 0 0 1.08-.702c.337-.337.538-.65.704-1.08.19-.493.296-1.02.332-1.8.052-1.104.058-1.49.058-4.029 0-2.474-.007-2.878-.058-4.029-.037-.782-.142-1.31-.332-1.798a2.91 2.91 0 0 0-.703-1.08 2.884 2.884 0 0 0-1.08-.704c-.49-.19-1.016-.295-1.798-.331C14.925 4.006 14.539 4 12 4zm0-2c2.717 0 3.056.01 4.122.06 1.065.05 1.79.217 2.428.465.66.254 1.216.598 1.772 1.153.509.5.902 1.105 1.153 1.772.247.637.415 1.363.465 2.428.047 1.066.06 1.405.06 4.122 0 2.717-.01 3.056-.06 4.122-.05 1.065-.218 1.79-.465 2.428a4.883 4.883 0 0 1-1.153 1.772c-.5.508-1.105.902-1.772 1.153-.637.247-1.363.415-2.428.465-1.066.047-1.405.06-4.122.06-2.717 0-3.056-.01-4.122-.06-1.065-.05-1.79-.218-2.428-.465a4.89 4.89 0 0 1-1.772-1.153 4.904 4.904 0 0 1-1.153-1.772c-.248-.637-.415-1.363-.465-2.428C2.013 15.056 2 14.717 2 12c0-2.717.01-3.056.06-4.122.05-1.066.217-1.79.465-2.428a4.88 4.88 0 0 1 1.153-1.772A4.897 4.897 0 0 1 5.45 2.525c.638-.248 1.362-.415 2.428-.465C8.944 2.013 9.283 2 12 2z" />
  <path
    fill-rule="evenodd"
    clip-rule="evenodd"
    d="M7 7a1 1 0 0 0 0 2v6a1 1 0 0 0 0 2h2a1 1 0 0 0 0-2v-3.697l2.168 3.252a.998.998 0 0 0 1.664 0L15 11.303V15a1 1 0 0 0 0 2h2a1 1 0 0 0 0-2V9a1 1 0 1 0 0-2h-1a1 1 0 0 0-.832.445L12 12.197 8.832 7.445A1 1 0 0 0 8 7H7z"
  />
</svg>
